packages/kaspersky-hexa-ui-icons/src/iconsSVGs/24/GosuslugiColor.svg

<svg width="24" height="24" viewBox="0 0 24 24" fill="none" xmlns="http://www.w3.org/2000/svg">
<path d="M10.4981 12.2065H8.64255C8.62361 12.2065 8.61415 12.2159 8.60468 12.2348C8.55734 13.0767 8.3964 13.9754 8.16919 14.7132C8.16919 14.7226 8.16919 14.7321 8.17865 14.7416C8.18812 14.751 8.19759 14.751 8.20706 14.751H8.84136C8.86029 14.751 8.86976 14.7416 8.86976 14.7321C9.04964 14.1645 9.19165 13.4267 9.24845 12.8024H9.85435V14.7226C9.85435 14.7416 9.87329 14.7605 9.89222 14.7605H10.4981C10.5171 14.7605 10.536 14.7416 10.536 14.7226V12.2348C10.536 12.2159 10.5171 12.2065 10.4981 12.2065ZM18.3465 12.2065H17.7406C17.7216 12.2065 17.7027 12.2254 17.7027 12.2443V14.1645C17.5702 14.2024 17.4376 14.2213 17.2861 14.2213C16.8885 14.2213 16.7938 14.0983 16.7938 13.5686V12.2443C16.7938 12.2254 16.7749 12.2065 16.756 12.2065H16.1595C16.1406 12.2065 16.1217 12.2254 16.1217 12.2443V13.6348C16.1217 14.5051 16.4152 14.8361 17.1631 14.8361C17.5891 14.8361 18.0719 14.7226 18.3559 14.6186C18.3654 14.6091 18.3749 14.5997 18.3749 14.5902V12.2443C18.3843 12.2159 18.3654 12.2065 18.3465 12.2065ZM5.50889 12.2065H4.89352C4.87459 12.2065 4.86512 12.2159 4.86512 12.2348C4.77045 12.6132 4.57164 13.2565 4.30655 13.9281L3.69118 12.2348C3.68172 12.2254 3.67225 12.2159 3.66278 12.2159H3.03794C3.02848 12.2159 3.01901 12.2254 3.00954 12.2348C3.00007 12.2443 3.00007 12.2538 3.00954 12.2632L3.93733 14.7983C3.84266 14.997 3.75745 15.1578 3.67225 15.3091C3.60598 15.4226 3.54917 15.5361 3.49237 15.6496C3.4829 15.6591 3.4829 15.6686 3.49237 15.678C3.50184 15.6875 3.51131 15.6969 3.52077 15.6969H4.19295C4.20241 15.6969 4.22135 15.6875 4.22135 15.678C4.33496 15.4605 4.47696 15.1578 4.60951 14.8456C5.00713 13.9186 5.31955 13.0483 5.55623 12.2538C5.55623 12.2443 5.55623 12.2348 5.54676 12.2254C5.52783 12.2065 5.51836 12.2065 5.50889 12.2065ZM7.71476 14.1645C7.71476 14.1551 7.70529 14.1456 7.69582 14.1456H7.66742C7.51595 14.2024 7.2414 14.2402 7.05205 14.2402C6.62603 14.2402 6.42721 14.1267 6.42721 13.4835C6.42721 12.9632 6.49348 12.7267 7.05205 12.7267C7.213 12.7267 7.355 12.7456 7.54435 12.8024C7.56328 12.8024 7.57275 12.8024 7.58222 12.7835C7.64849 12.6511 7.73369 12.4902 7.82837 12.2916V12.2632C7.82837 12.2538 7.8189 12.2443 7.80943 12.2443C7.56328 12.1686 7.2698 12.1213 7.00472 12.1213C6.12426 12.1213 5.72664 12.5375 5.72664 13.474C5.72664 14.4199 6.12426 14.8456 7.00472 14.8456C7.22246 14.8456 7.66742 14.7983 7.8757 14.7132C7.89464 14.7037 7.9041 14.6848 7.89464 14.6659L7.71476 14.1645ZM13.4803 12.2065H12.8649C12.846 12.2065 12.8365 12.2159 12.8365 12.2348C12.7419 12.6227 12.543 13.2565 12.278 13.9281L11.6626 12.2348C11.6531 12.2254 11.6437 12.2159 11.6342 12.2159H11.0094C10.9999 12.2159 10.9904 12.2254 10.981 12.2348C10.9715 12.2443 10.9715 12.2538 10.981 12.2632L11.9087 14.7983C11.8141 14.997 11.7289 15.1578 11.6437 15.3091C11.5774 15.4226 11.5206 15.5361 11.4638 15.6591C11.4543 15.6686 11.4543 15.678 11.4638 15.6875C11.4733 15.6969 11.4827 15.7064 11.4922 15.7064H12.1644C12.1738 15.7064 12.1928 15.6969 12.1928 15.6875C12.3064 15.4699 12.4484 15.1672 12.5809 14.8551C12.9691 13.9281 13.291 13.0578 13.5276 12.2632C13.5276 12.2538 13.5276 12.2443 13.5182 12.2348C13.4992 12.2065 13.4898 12.2065 13.4803 12.2065ZM15.7524 12.2065H13.9631C13.9442 12.2065 13.9253 12.2254 13.9253 12.2443V14.7321C13.9253 14.751 13.9442 14.7699 13.9631 14.7699H14.569C14.588 14.7699 14.6069 14.751 14.6069 14.7321V12.8119H15.5442C15.5536 12.8119 15.5726 12.8024 15.5726 12.7929C15.6483 12.6227 15.7146 12.443 15.7903 12.2632V12.2348C15.7714 12.2065 15.7619 12.2065 15.7524 12.2065Z" fill="#EF4058"/>
<path d="M6.22833 8.38488C5.35734 8.38488 5.01652 8.76326 5.01652 9.71864C5.01652 10.6929 5.35734 11.0713 6.22833 11.0713C7.10878 11.0713 7.4496 10.6929 7.4496 9.71864C7.4496 8.7538 7.10878 8.38488 6.22833 8.38488ZM6.22833 10.5132C5.8307 10.5132 5.70763 10.4092 5.70763 9.7281C5.70763 9.0092 5.84017 8.94298 6.22833 8.94298C6.62595 8.94298 6.75849 9.0092 6.75849 9.7281C6.75849 10.4092 6.63542 10.5132 6.22833 10.5132ZM9.87321 10.4092C9.87321 10.3997 9.86375 10.3903 9.85428 10.3903H9.82588C9.6744 10.447 9.39985 10.4848 9.21051 10.4848C8.78448 10.4848 8.58567 10.3713 8.58567 9.7281C8.58567 9.20784 8.65194 8.97136 9.21051 8.97136C9.37145 8.97136 9.51346 8.99028 9.7028 9.04703C9.72174 9.04703 9.7312 9.04703 9.74067 9.02812C9.80694 8.89569 9.89215 8.73488 9.98682 8.53623V8.50786C9.98682 8.4984 9.97735 8.48894 9.96789 8.48894C9.72174 8.41326 9.42825 8.36597 9.16317 8.36597C8.28272 8.36597 7.88509 8.78217 7.88509 9.71864C7.88509 10.6646 8.28272 11.0902 9.16317 11.0902C9.38092 11.0902 9.82588 11.0429 10.0342 10.9578C10.0531 10.9483 10.0626 10.9294 10.0531 10.9105L9.87321 10.4092ZM4.82718 8.4511H3.03787C3.01893 8.4511 3 8.47002 3 8.48894V10.9767C3 10.9956 3.01893 11.0146 3.03787 11.0146H3.64377C3.66271 11.0146 3.68164 10.9956 3.68164 10.9767V9.04703H4.60943C4.6189 9.04703 4.63783 9.03758 4.63783 9.02812C4.71357 8.85785 4.77984 8.67812 4.85558 8.4984V8.47002C4.84611 8.46056 4.83664 8.4511 4.82718 8.4511Z" fill="#1466AC"/>
<path d="M21.177 14.4957V14.4579C21.177 14.4389 21.177 14.4106 21.1865 14.3916C21.2149 14.0417 21.2338 13.616 21.2527 13.1241V13.0863C21.2622 12.7552 21.2717 12.3957 21.2717 12.0268C21.2717 11.6579 21.2622 11.2985 21.2527 10.9674V10.9296C21.2338 10.4471 21.2149 10.012 21.1865 9.66201C21.1865 9.64309 21.1865 9.61471 21.177 9.5958V9.55796C21.177 9.52012 21.1675 9.49174 21.1675 9.45391V9.41607C21.1391 9.04716 21.1202 8.82013 21.1107 8.80122C21.1107 8.76338 21.1013 8.72554 21.1013 8.69716V8.66879C21.0918 8.60257 21.0823 8.54582 21.0634 8.4796C21.0634 8.47014 21.0634 8.46068 21.0539 8.45122C20.893 7.68502 20.4669 6.84315 19.9368 6.20938C19.7285 5.96343 19.5108 5.74587 19.2835 5.5756C19.2646 5.55669 18.9995 5.3675 18.583 5.07426C18.1001 4.74319 17.409 4.27968 16.6232 3.82564C15.2221 3.00268 13.9819 2.42567 13.8115 2.35945C13.802 2.35945 13.802 2.34999 13.802 2.34999C13.4328 2.18919 12.9878 2.07567 12.505 2.02838C12.4103 2.01892 12.3157 2.00946 12.221 2.00946C12.1263 2 12.0411 2 11.9559 2H11.8234C11.1796 2.01892 10.5832 2.13243 10.1098 2.34999C10.0435 2.37837 8.78438 2.95539 7.35483 3.79726L7.29802 3.82564C5.8306 4.68643 4.68507 5.53777 4.63773 5.5756C4.27797 5.84046 3.95609 6.181 3.6626 6.61612C3.59633 6.71072 3.59633 6.95666 3.88035 6.95666H4.60933C4.92175 6.95666 4.99748 6.76747 5.34777 6.51207C5.73593 6.22829 6.50278 5.66074 7.90393 4.82832C8.91692 4.23239 9.86364 3.75942 10.3275 3.54186C10.337 3.54186 10.3465 3.5324 10.3559 3.5324C10.3559 3.5324 10.3654 3.5324 10.3654 3.52294C10.3654 3.52294 10.3749 3.52294 10.3749 3.51348C10.3843 3.51348 10.3938 3.50402 10.3938 3.50402C10.4033 3.50402 10.4127 3.49456 10.4222 3.49456C10.5358 3.43781 10.6116 3.40943 10.6116 3.40943C10.9334 3.26754 11.3879 3.17295 11.8707 3.16349H12.06C12.2021 3.16349 12.3441 3.17295 12.4766 3.19187C12.7701 3.22971 13.0352 3.28646 13.2529 3.38105C13.2718 3.39051 13.3003 3.39997 13.3192 3.40943C13.3192 3.40943 13.3287 3.41889 13.3571 3.42835C13.5748 3.52294 14.7487 4.08104 16.0268 4.82832C16.7842 5.27291 17.4564 5.71749 17.9203 6.03911C18.3274 6.32289 18.5735 6.50261 18.583 6.51207C18.7628 6.6445 18.9427 6.83369 19.1131 7.04179C19.5392 7.59043 19.8894 8.33771 19.9462 8.91473C19.9462 8.92419 19.9746 9.15121 20.0031 9.53904C20.0031 9.56742 20.0031 9.58634 20.0125 9.61471V9.67147C20.0125 9.70931 20.022 9.73768 20.022 9.77552V9.81336C20.022 9.83228 20.022 9.86065 20.0315 9.87957C20.0315 9.92687 20.0409 9.97417 20.0409 10.0215C20.0409 10.0498 20.0409 10.0782 20.0504 10.1066V10.1255C20.0504 10.1634 20.0504 10.1917 20.0599 10.2296V10.3052C20.0883 10.7971 20.1072 11.3836 20.1072 11.9984C20.1072 12.6133 20.0883 13.1998 20.0599 13.6917V13.7673C20.0599 13.8052 20.0599 13.8335 20.0504 13.8714V13.8903C20.0504 13.9187 20.0504 13.9471 20.0409 13.9754C20.0409 14.0227 20.0315 14.07 20.0315 14.1173C20.0315 14.1457 20.0315 14.1646 20.022 14.1835V14.2214C20.022 14.2592 20.0125 14.2876 20.0125 14.3254V14.3822C20.0125 14.4106 20.0125 14.4389 20.0031 14.4579C19.9746 14.8457 19.9462 15.0822 19.9462 15.0822C19.8894 15.6592 19.5392 16.4065 19.1131 16.9551C18.9427 17.1727 18.7628 17.3524 18.583 17.4848C18.5735 17.4848 18.3274 17.674 17.9203 17.9578C17.4564 18.2794 16.7747 18.724 16.0268 19.1686C14.7487 19.9253 13.5653 20.474 13.3571 20.5686L13.3192 20.5875C13.3003 20.5969 13.2718 20.6064 13.2529 20.6158C13.0352 20.701 12.7701 20.7672 12.4766 20.805C12.3441 20.8239 12.2021 20.8334 12.06 20.8334H11.8707C11.3879 20.824 10.9334 20.7388 10.6116 20.5875C10.6116 20.5875 10.5453 20.5591 10.4222 20.5023C10.4127 20.4929 10.3938 20.4929 10.3843 20.4834C10.3749 20.474 10.3654 20.474 10.3559 20.4645C10.3465 20.4645 10.3465 20.455 10.337 20.455C10.3275 20.455 10.3181 20.4456 10.3086 20.4456C10.2991 20.4361 10.2897 20.4361 10.2707 20.4267H10.2613C9.77844 20.2375 8.86958 19.7834 7.90393 19.2159C6.49331 18.3929 5.73593 17.8159 5.34777 17.5321C4.99748 17.2767 4.92175 17.0875 4.60933 17.0875H3.88035C3.59633 17.0875 3.59633 17.3335 3.6626 17.4281C3.95609 17.8632 4.27797 18.2037 4.63773 18.4686C4.68507 18.5064 5.84007 19.3578 7.29802 20.2186C7.37376 20.2659 7.4495 20.3131 7.5347 20.351C8.88852 21.1266 10.053 21.6564 10.1193 21.6942C10.5832 21.9023 11.1891 22.0253 11.8328 22.0442H11.9654C12.0506 22.0442 12.1358 22.0442 12.221 22.0347C12.3157 22.0347 12.4103 22.0253 12.505 22.0158C12.9878 21.9685 13.4423 21.855 13.802 21.6942C13.802 21.6942 13.8115 21.6942 13.8115 21.6847C13.9724 21.6091 15.2221 21.0321 16.6138 20.2186C17.3996 19.7551 18.0907 19.301 18.5735 18.9699C18.9901 18.6767 19.2551 18.4875 19.2741 18.4686C19.5013 18.2983 19.719 18.0808 19.9273 17.8348C20.4575 17.201 20.8835 16.3592 21.0444 15.593C21.0444 15.5835 21.0444 15.5741 21.0539 15.5646C21.0634 15.4984 21.0823 15.4322 21.0918 15.3754V15.347C21.1013 15.3092 21.1013 15.2714 21.1013 15.243C21.1013 15.2241 21.1297 14.997 21.1581 14.6281V14.5903C21.177 14.5619 21.177 14.5335 21.177 14.4957Z" fill="url(#paint0_linear_8804_2245)"/>
<defs>
<linearGradient id="paint0_linear_8804_2245" x1="12.4488" y1="2" x2="12.4488" y2="22.0615" gradientUnits="userSpaceOnUse">
<stop offset="0.398" stop-color="#1466AC"/>
<stop offset="0.659" stop-color="#EF4058"/>
</linearGradient>
</defs>
</svg>

<svg xmlns="http://www.w3.org/2000/svg" width="24" height="24" fill="none" viewBox="0 0 24 24"><path fill="#ef4058" d="M10.4981 12.2065H8.6425c-.0189 0-.0283.0094-.0378.0283-.0474.8419-.2083 1.7406-.4355 2.4784 0 .0094 0 .0189.0094.0284.0095.0094.019.0094.0285.0094h.6343c.0189 0 .0284-.0094.0284-.0189.1798-.5676.3218-1.3054.3787-1.9297h.6059v1.9202c0 .019.0189.0379.0378.0379h.6059a.041.041 0 0 0 .0379-.0379v-2.4878c0-.0189-.0189-.0283-.0379-.0283m7.8484 0h-.6059a.041.041 0 0 0-.0379.0378v1.9202a1.48 1.48 0 0 1-.4166.0568c-.3976 0-.4923-.123-.4923-.6527v-1.3243a.0406.0406 0 0 0-.0378-.0378h-.5965a.0406.0406 0 0 0-.0378.0378v1.3905c0 .8703.2935 1.2013 1.0414 1.2013.426 0 .9088-.1135 1.1928-.2175.0095-.0095.019-.0189.019-.0284v-2.3459c.0094-.0284-.0095-.0378-.0284-.0378m-12.8376 0h-.6154q-.0285 0-.0284.0283c-.0946.3784-.2935 1.0217-.5586 1.6933l-.6153-1.6933c-.0095-.0094-.019-.0189-.0284-.0189h-.6249c-.0094 0-.0189.0095-.0284.0189q-.0141.0143 0 .0284l.9278 2.5351a8.2 8.2 0 0 1-.265.5108c-.0663.1135-.1231.227-.18.3405q-.0141.0143 0 .0284c.0095.0095.019.0189.0285.0189h.6721c.0095 0 .0285-.0094.0285-.0189.1136-.2175.2556-.5202.3881-.8324.3976-.927.71-1.7973.9467-2.5918 0-.0095 0-.019-.0094-.0284-.019-.0189-.0284-.0189-.038-.0189m2.2059 1.958c0-.0094-.0095-.0189-.019-.0189h-.0284c-.1514.0568-.426.0946-.6153.0946-.426 0-.6249-.1135-.6249-.7567 0-.5203.0663-.7568.6249-.7568.1609 0 .3029.0189.4922.0757.019 0 .0285 0 .038-.0189.0662-.1324.1514-.2933.246-.4919v-.0284c0-.0094-.0094-.0189-.0189-.0189-.2461-.0757-.5396-.123-.8047-.123-.8804 0-1.278.4162-1.278 1.3527 0 .9459.3976 1.3716 1.278 1.3716.2178 0 .6627-.0473.871-.1324.019-.0095.0284-.0284.019-.0473zm5.7655-1.958h-.6154q-.0284 0-.0284.0283c-.0946.3879-.2935 1.0217-.5585 1.6933l-.6154-1.6933c-.0095-.0094-.0189-.0189-.0284-.0189h-.6248c-.0095 0-.019.0095-.0284.0189q-.0142.0143 0 .0284l.9277 2.5351a8.2 8.2 0 0 1-.265.5108 4 4 0 0 0-.1799.35q-.0142.0142 0 .0284c.0095.0094.0189.0189.0284.0189h.6722c.0094 0 .0284-.0095.0284-.0189.1136-.2176.2556-.5203.3881-.8324.3882-.927.7101-1.7973.9467-2.5919 0-.0094 0-.0189-.0094-.0284-.019-.0283-.0284-.0283-.0379-.0283m2.2721 0H13.963a.0406.0406 0 0 0-.0378.0378v2.4878c0 .0189.0189.0378.0378.0378h.6059a.041.041 0 0 0 .0379-.0378v-1.9202h.9373c.0094 0 .0284-.0095.0284-.019.0757-.1702.142-.3499.2177-.5297v-.0284c-.0189-.0283-.0284-.0283-.0379-.0283"/><path fill="#1466ac" d="M6.2283 8.3849c-.871 0-1.2118.3784-1.2118 1.3337 0 .9743.3408 1.3527 1.2118 1.3527.8805 0 1.2213-.3784 1.2213-1.3527 0-.9648-.3408-1.3337-1.2213-1.3337m0 2.1283c-.3976 0-.5207-.104-.5207-.7851 0-.7189.1326-.7851.5207-.7851.3976 0 .5302.0662.5302.7851 0 .6811-.123.7851-.5302.7851m3.645-.104a.0203.0203 0 0 0-.019-.0189h-.0284c-.1515.0567-.426.0945-.6154.0945-.426 0-.6248-.1135-.6248-.7567 0-.5203.0662-.7567.6248-.7567.161 0 .303.0189.4923.0756.019 0 .0284 0 .0379-.0189.0662-.1324.1515-.2932.2461-.4919V8.508a.0204.0204 0 0 0-.019-.019c-.246-.0756-.5396-.123-.8046-.123-.8805 0-1.2781.4163-1.2781 1.3527 0 .946.3976 1.3716 1.278 1.3716.2178 0 .6628-.0473.8711-.1324.0189-.0095.0284-.0284.0189-.0473zM4.8271 8.4511H3.0379A.041.041 0 0 0 3 8.4889v2.4878c0 .0189.019.0379.0379.0379h.6059c.019 0 .0378-.019.0378-.0379V9.047h.9278c.0095 0 .0284-.0094.0284-.0189.0758-.1703.142-.35.2178-.5297V8.47c-.0095-.0094-.019-.0189-.0284-.0189"/><path fill="url(#a)" d="M21.177 14.4957v-.0378c0-.019 0-.0473.0095-.0663.0284-.3499.0473-.7756.0662-1.2675v-.0378c.0095-.3311.019-.6906.019-1.0595s-.0095-.7283-.019-1.0594v-.0378c-.0189-.4825-.0378-.9176-.0662-1.2676 0-.019 0-.0473-.0095-.0662V9.558c0-.0379-.0095-.0663-.0095-.104v-.038c-.0284-.3688-.0473-.5959-.0568-.6148 0-.0378-.0094-.0757-.0094-.104v-.0284c-.0095-.0662-.019-.123-.0379-.1892 0-.0095 0-.019-.0095-.0284-.1609-.7662-.587-1.608-1.1171-2.2418-.2083-.246-.426-.4635-.6533-.6338-.0189-.019-.284-.2081-.7005-.5013-.4829-.3311-1.174-.7946-1.9598-1.2487-1.4011-.823-2.6413-1.4-2.8117-1.4662-.0095 0-.0095-.0094-.0095-.0094-.3692-.1608-.8142-.2743-1.297-.3216-.0947-.0095-.1893-.019-.284-.019C12.1263 2 12.0411 2 11.9559 2h-.1325c-.6438.019-1.2402.1324-1.7136.35-.0663.0284-1.3254.6054-2.755 1.4473l-.0568.0283c-1.4674.8608-2.613 1.7122-2.6603 1.75-.3597.2649-.6816.6054-.9751 1.0405-.0663.0946-.0663.3406.2178.3406h.729c.3124 0 .388-.1892.7384-.4446.3881-.2838 1.155-.8514 2.5561-1.6838 1.013-.596 1.9597-1.0689 2.4236-1.2864.0095 0 .019-.0095.0284-.0095 0 0 .0095 0 .0095-.0095 0 0 .0095 0 .0095-.0094.0094 0 .0189-.0095.0189-.0095.0095 0 .0189-.0094.0284-.0094a2.2 2.2 0 0 1 .1894-.0852c.3218-.1419.7763-.2365 1.2591-.246h.1893c.1421 0 .2841.0095.4166.0285.2935.0378.5586.0946.7763.1892.0189.0094.0474.0189.0663.0283 0 0 .0095.0095.0379.019.2177.0945 1.3916.6526 2.6697 1.4a30.6 30.6 0 0 1 1.8935 1.2107c.4071.2838.6532.4635.6627.473.1798.1324.3597.3216.5301.5297.4261.5486.7763 1.296.8331 1.873 0 .0094.0284.2364.0569.6242 0 .0284 0 .0473.0094.0757v.0568c0 .0378.0095.0662.0095.104v.0379c0 .0189 0 .0473.0095.0662 0 .0473.0094.0946.0094.1419 0 .0283 0 .0567.0095.0851v.0189c0 .0379 0 .0662.0095.1041v.0756c.0284.4919.0473 1.0784.0473 1.6932s-.0189 1.2014-.0473 1.6933v.0756c0 .0379 0 .0662-.0095.1041v.0189c0 .0284 0 .0568-.0095.0851 0 .0473-.0094.0946-.0094.1419 0 .0284 0 .0473-.0095.0662v.0379c0 .0378-.0095.0662-.0095.104v.0568c0 .0284 0 .0567-.0094.0757-.0285.3878-.0569.6243-.0569.6243-.0568.577-.407 1.3243-.8331 1.8729-.1704.2176-.3503.3973-.5301.5297-.0095 0-.2556.1892-.6627.473-.4639.3216-1.1456.7662-1.8935 1.2108-1.2781.7567-2.4615 1.3054-2.6697 1.4l-.0379.0189c-.0189.0094-.0474.0189-.0663.0283-.2177.0852-.4828.1514-.7763.1892a3 3 0 0 1-.4166.0284h-.1893c-.4828-.0094-.9373-.0946-1.2591-.2459 0 0-.0663-.0284-.1894-.0852-.0095-.0094-.0284-.0094-.0379-.0189-.0094-.0094-.0189-.0094-.0284-.0189-.0094 0-.0094-.0095-.0189-.0095s-.0189-.0094-.0284-.0094c-.0095-.0095-.0189-.0095-.0379-.0189h-.0094c-.4829-.1892-1.3917-.6433-2.3574-1.2108-1.4106-.823-2.168-1.4-2.5561-1.6838-.3503-.2554-.426-.4446-.7385-.4446h-.729c-.284 0-.284.246-.2177.3406.2935.4351.6154.7756.9751 1.0405.0474.0378 1.2024.8892 2.6603 1.75.0758.0473.1515.0945.2367.1324 1.3538.7756 2.5183 1.3054 2.5846 1.3432.4639.2081 1.0698.3311 1.7135.35h.1326c.0852 0 .1704 0 .2556-.0095.0947 0 .1893-.0094.284-.0189.4828-.0473.9373-.1608 1.297-.3216 0 0 .0095 0 .0095-.0095.1609-.0756 1.4106-.6526 2.8023-1.4661a34.8 34.8 0 0 0 1.9597-1.2487c.4166-.2932.6816-.4824.7006-.5013.2272-.1703.4449-.3878.6532-.6338.5302-.6338.9562-1.4756 1.1171-2.2418 0-.0095 0-.0189.0095-.0284.0095-.0662.0284-.1324.0379-.1892v-.0284c.0095-.0378.0095-.0756.0095-.104 0-.0189.0284-.246.0568-.6149v-.0378c.0189-.0284.0189-.0568.0189-.0946"/><defs><linearGradient id="a" x1="12" x2="12" y1="2" y2="22" gradientUnits="userSpaceOnUse"><stop offset="0" stop-color="#1466ac"/><stop offset="1" stop-color="#ef4058"/></linearGradient></defs></svg>
